X:853
T:Reel 853
M:4/4
K:Dmaj
L:1/8
AG|FDDF A2GF|EA,A,B, CDEG|FDDF A2GF|GABd cAGE|FDDF A2GF|EA,A,B, CDEG|FDDF A2AF|GEAF D2|FG|Addc d2ed|cAcB cAGE|Addc d2ed|cAEc A2Bc|Addc dfed|cABc A2AB|cdcd BGEG|FDEC D2|
